X: 1
T: Causeway
R: reel
M: 4/4
L: 1/8
K: Dmix
|: EA, ~A,2 ED (3EFG | AGED CA, ~A,2 | EA (3AAA BAGE | ABGB ABcB |
Aeed BA (3B^cd | efed BEED | EA, ~A,2 ED (3EFG | AGED CA, ~A,2 :|
|: ~E3 G ABcB | Aeed ~B3 d | efge "slide" a2 ed | c2 cA (3Bcd ed |
~c3 B AE ~E2| Dddc BEED | EA, ~A,2 ED (3EFG | AGED CA, ~A,2 :|
